X: 1
T: Barber's Pole, The
M: 4/4
L: 1/8
R: hornpipe
K: Gmaj
DF||:GABc d2 ef|gdba g2 df|gdBg ecAG|FAd^c ed=cA|GABc d2 ef|gdba g2 df|gdBg ecEF|1 A2 G2 G2 DF:||2 A2 G2 G2 df|  ||:gdBd gbag|fgef d2 cB|ceac BdgB|AGFE D2 EF|GABc d2 ef|gdba g2 df|gdBg ecEF|1 A2 G2 G2 df:||2 A2 G2 G2 |
